hero/outline/paper-clip.svg

<svg width="24" height="24" viewBox="0 0 24 24" fill="none" xmlns="http://www.w3.org/2000/svg">
<path d="M18.375 12.739L10.682 20.432C8.92462 22.1893 6.07538 22.1893 4.31802 20.432C2.56066 18.6746 2.56066 15.8254 4.31802 14.068L15.2573 3.12868C16.4289 1.95711 18.3283 1.95711 19.4999 3.12868C20.6715 4.30025 20.6715 6.19975 19.4999 7.37132L8.55158 18.3197M8.56066 18.3107C8.55764 18.3137 8.55462 18.3167 8.55158 18.3197M14.2498 8.37865L6.43934 16.1893C5.85355 16.7751 5.85355 17.7249 6.43934 18.3107C7.02211 18.8934 7.9651 18.8964 8.55158 18.3197" stroke="#0F172A" stroke-width="1.5" stroke-linecap="round" stroke-linejoin="round"/>
</svg>

<svg viewBox="0 0 24 24" xmlns="http://www.w3.org/2000/svg"><path fill="none" stroke="#000" stroke-linecap="round" stroke-linejoin="round" stroke-width="1.5" d="M18.375 12.73l-7.693 7.69v0c-1.76 1.75-4.61 1.75-6.37 0 -1.76-1.76-1.76-4.61 0-6.37L15.25 3.11V3.1c1.17-1.18 3.07-1.18 4.24 0 1.17 1.17 1.17 3.07-.01 4.24 0 0-.01 0-.01 0L8.52 18.29m0-.01l-.01.01m5.699-9.95L6.4 16.15 6.4 16.15c-.58.59-.57 1.54.02 2.12 .57.56 1.5.56 2.08 0"/></svg>
